flaticon/symbols/devotion.svg

<svg xmlns="http://www.w3.org/2000/svg" width="32" height="32" viewBox="0 0 24 24">
    <path d="M 20.789062 5.96875 C 19.785156 4.058594 17.730469 3.132812 15.863281 2.691406 C 15.371094 1.101562 13.898438 0 12.234375 0 C 10.621094 0 9.160156 1.058594 8.636719 2.582031 C 6.617188 2.976562 4.25 3.886719 3.203125 5.972656 C 2.625 7.128906 2.632812 8.601562 3.222656 10.019531 C 3.597656 10.910156 4.800781 13.707031 6.398438 16.625 C 4.824219 17.355469 3.339844 19.425781 3.71875 21.195312 C 3.964844 22.328125 4.785156 23.300781 5.859375 23.730469 C 6.304688 23.910156 6.773438 24 7.234375 24 C 7.714844 24 8.1875 23.90625 8.636719 23.714844 C 8.984375 23.566406 9.234375 23.269531 9.320312 22.894531 C 9.402344 22.511719 9.300781 22.109375 9.050781 21.828125 L 9.039062 21.816406 C 8.699219 21.4375 8.167969 21.320312 7.679688 21.515625 C 7.347656 21.648438 6.980469 21.625 6.648438 21.453125 C 6.382812 21.316406 6.171875 21.058594 6.085938 20.765625 C 5.910156 20.152344 6.871094 19 7.472656 18.773438 C 7.519531 18.757812 7.558594 18.726562 7.601562 18.703125 C 8.773438 20.617188 10.074219 22.394531 11.375 23.503906 C 11.554688 23.65625 11.792969 23.734375 12.035156 23.734375 C 12.273438 23.734375 12.515625 23.65625 12.695312 23.503906 C 13.964844 22.417969 15.230469 20.699219 16.382812 18.808594 C 16.984375 19.089844 17.867188 20.175781 17.695312 20.765625 C 17.609375 21.058594 17.398438 21.316406 17.132812 21.453125 C 16.800781 21.625 16.433594 21.648438 16.101562 21.515625 C 15.617188 21.320312 15.082031 21.441406 14.742188 21.820312 C 14.480469 22.109375 14.378906 22.511719 14.464844 22.894531 C 14.546875 23.269531 14.796875 23.566406 15.144531 23.714844 C 15.59375 23.90625 16.070312 24 16.546875 24 C 17.011719 24 17.476562 23.910156 17.921875 23.730469 C 18.996094 23.300781 19.816406 22.328125 20.0625 21.195312 C 20.425781 19.503906 19.089844 17.539062 17.578125 16.730469 C 18.984375 14.140625 20.128906 11.542969 20.769531 10.019531 C 21.371094 8.574219 21.378906 7.097656 20.789062 5.96875 Z M 12.234375 0.800781 C 13.339844 0.800781 14.34375 1.417969 14.863281 2.363281 C 13.738281 2.179688 12.785156 2.152344 12.308594 2.152344 C 12.148438 2.152344 12.039062 2.15625 12 2.15625 C 11.859375 2.152344 10.902344 2.128906 9.644531 2.292969 C 10.175781 1.390625 11.164062 0.800781 12.234375 0.800781 Z M 5.320312 20.988281 C 5.46875 21.496094 5.816406 21.925781 6.28125 22.164062 C 6.8125 22.441406 7.429688 22.472656 7.972656 22.257812 C 8.148438 22.191406 8.332031 22.226562 8.441406 22.351562 L 8.445312 22.351562 C 8.53125 22.449219 8.566406 22.585938 8.539062 22.71875 C 8.519531 22.789062 8.472656 22.917969 8.324219 22.980469 C 7.636719 23.269531 6.867188 23.273438 6.15625 22.988281 C 5.324219 22.65625 4.691406 21.90625 4.5 21.023438 C 4.207031 19.660156 5.496094 17.890625 6.785156 17.328125 C 6.917969 17.5625 7.050781 17.792969 7.1875 18.027344 C 6.34375 18.34375 4.976562 19.808594 5.320312 20.988281 Z M 19.28125 21.023438 C 19.089844 21.90625 18.457031 22.65625 17.625 22.988281 C 16.917969 23.273438 16.144531 23.269531 15.457031 22.980469 C 15.308594 22.917969 15.261719 22.789062 15.246094 22.71875 C 15.214844 22.585938 15.25 22.453125 15.339844 22.351562 C 15.414062 22.269531 15.519531 22.222656 15.632812 22.222656 C 15.691406 22.222656 15.75 22.234375 15.808594 22.257812 C 16.351562 22.476562 16.96875 22.441406 17.5 22.164062 C 17.964844 21.925781 18.316406 21.496094 18.460938 20.988281 C 18.78125 19.898438 17.636719 18.566406 16.796875 18.117188 C 16.808594 18.09375 16.824219 18.070312 16.835938 18.046875 C 16.945312 17.859375 17.054688 17.671875 17.160156 17.484375 C 17.171875 17.464844 17.183594 17.445312 17.191406 17.425781 C 18.417969 18.078125 19.558594 19.734375 19.28125 21.023438 Z M 20.03125 9.710938 C 19.394531 11.230469 18.246094 13.835938 16.84375 16.410156 L 16.839844 16.410156 L 16.671875 16.714844 C 16.414062 17.179688 16.152344 17.640625 15.890625 18.078125 L 15.703125 18.390625 L 15.703125 18.394531 C 14.59375 20.214844 13.382812 21.863281 12.171875 22.894531 C 12.113281 22.945312 11.953125 22.945312 11.894531 22.894531 C 10.574219 21.769531 9.242188 19.898438 8.050781 17.910156 C 7.808594 17.507812 7.574219 17.101562 7.347656 16.695312 C 5.652344 13.664062 4.347656 10.636719 3.960938 9.710938 C 3.457031 8.507812 3.441406 7.277344 3.914062 6.332031 C 5.457031 3.257812 10.644531 3.089844 11.789062 3.089844 C 11.921875 3.089844 12.003906 3.089844 12.011719 3.089844 C 12.074219 3.089844 18.257812 2.875 20.078125 6.339844 C 20.558594 7.257812 20.542969 8.484375 20.03125 9.710938 Z M 20.03125 9.710938"/>
    <path d="M 12.292969 4.285156 C 12.160156 4.285156 12.082031 4.289062 12.066406 4.289062 L 12.011719 4.292969 L 11.945312 4.289062 C 11.929688 4.289062 11.855469 4.289062 11.738281 4.289062 C 11.179688 4.289062 6.25 4.359375 4.988281 6.871094 C 4.675781 7.492188 4.707031 8.382812 5.070312 9.246094 C 6.371094 12.355469 8.945312 18.007812 11.566406 20.933594 C 11.6875 21.0625 11.855469 21.140625 12.035156 21.140625 C 12.210938 21.140625 12.382812 21.066406 12.5 20.933594 C 14.429688 18.789062 16.53125 14.964844 18.921875 9.246094 C 19.296875 8.351562 19.332031 7.496094 19.015625 6.898438 C 18.003906 4.972656 14.878906 4.285156 12.292969 4.285156 Z M 11.632812 7.199219 C 11.132812 6.945312 10.515625 6.800781 10.035156 6.800781 C 8.710938 6.800781 7.632812 7.875 7.632812 9.199219 C 7.632812 10.523438 8.710938 11.601562 10.035156 11.601562 C 10.253906 11.601562 10.433594 11.421875 10.433594 11.199219 C 10.433594 10.980469 10.253906 10.800781 10.035156 10.800781 C 9.152344 10.800781 8.433594 10.082031 8.433594 9.199219 C 8.433594 8.316406 9.152344 7.601562 10.035156 7.601562 C 10.546875 7.601562 11.304688 7.839844 11.632812 8.15625 L 11.632812 19.765625 C 9.273438 16.796875 7 11.785156 5.808594 8.9375 C 5.539062 8.292969 5.5 7.640625 5.703125 7.230469 C 6.539062 5.566406 9.886719 5.105469 11.632812 5.089844 Z M 18.183594 8.9375 C 16.078125 13.96875 14.148438 17.601562 12.433594 19.765625 L 12.433594 8.15625 C 12.761719 7.839844 13.523438 7.601562 14.035156 7.601562 C 14.917969 7.601562 15.632812 8.316406 15.632812 9.199219 C 15.632812 10.082031 14.917969 10.800781 14.035156 10.800781 C 13.8125 10.800781 13.632812 10.980469 13.632812 11.199219 C 13.632812 11.421875 13.8125 11.601562 14.035156 11.601562 C 15.359375 11.601562 16.433594 10.523438 16.433594 9.199219 C 16.433594 7.875 15.359375 6.800781 14.035156 6.800781 C 13.550781 6.800781 12.9375 6.945312 12.433594 7.199219 L 12.433594 5.089844 C 14.824219 5.113281 17.53125 5.789062 18.308594 7.269531 C 18.503906 7.644531 18.457031 8.285156 18.183594 8.9375 Z M 18.183594 8.9375"/>
</svg>

<svg xmlns="http://www.w3.org/2000/svg" width="32" height="32" viewBox="0 0 24 24">
    <path d="M20.79 5.969c-1.005-1.91-3.06-2.836-4.927-3.278A3.815 3.815 0 0 0 12.234 0C10.621 0 9.16 1.059 8.637 2.582c-2.02.395-4.387 1.305-5.434 3.39-.578 1.157-.57 2.63.02 4.048.375.89 1.578 3.687 3.175 6.605-1.574.73-3.058 2.8-2.68 4.57A3.582 3.582 0 0 0 5.86 23.73c.446.18.914.27 1.375.27.48 0 .954-.094 1.403-.285.347-.149.597-.445.683-.82a1.228 1.228 0 0 0-.27-1.067l-.01-.012a1.201 1.201 0 0 0-1.36-.3c-.332.132-.7.109-1.032-.063a1.15 1.15 0 0 1-.562-.687c-.176-.614.785-1.766 1.387-1.993.047-.015.086-.046.129-.07 1.171 1.914 2.472 3.692 3.773 4.8.18.153.418.231.66.231.238 0 .48-.078.66-.23 1.27-1.086 2.535-2.805 3.688-4.695.601.28 1.484 1.367 1.312 1.957a1.15 1.15 0 0 1-.562.687c-.332.172-.7.195-1.031.063a1.204 1.204 0 0 0-1.637 1.379c.082.375.332.671.68.82.449.191.925.285 1.402.285.465 0 .93-.09 1.375-.27a3.582 3.582 0 0 0 2.14-2.535c.364-1.691-.972-3.656-2.484-4.465 1.406-2.59 2.55-5.187 3.192-6.71.601-1.446.609-2.922.02-4.051zM12.233.8c1.106 0 2.11.617 2.63 1.562a16.293 16.293 0 0 0-2.555-.21c-.16 0-.27.003-.309.003a15.744 15.744 0 0 0-2.355.137 3.03 3.03 0 0 1 2.59-1.492zM5.32 20.988c.149.508.496.938.961 1.176a2.036 2.036 0 0 0 1.692.094c.175-.067.359-.031.468.094h.004a.426.426 0 0 1 .094.367c-.02.07-.066.199-.215.261a2.836 2.836 0 0 1-2.168.008A2.764 2.764 0 0 1 4.5 21.023c-.293-1.363.996-3.132 2.285-3.695.133.235.266.465.402.7-.843.316-2.21 1.78-1.867 2.96zm13.961.035a2.764 2.764 0 0 1-1.656 1.965 2.836 2.836 0 0 1-2.168-.008.359.359 0 0 1-.21-.261.406.406 0 0 1 .093-.367.393.393 0 0 1 .293-.13.47.47 0 0 1 .176.036c.543.219 1.16.183 1.691-.094.465-.238.816-.668.96-1.176.321-1.09-.823-2.422-1.663-2.87.012-.024.027-.048.039-.071.11-.188.219-.375.324-.563a.427.427 0 0 0 .031-.058c1.227.652 2.368 2.308 2.09 3.597zm.75-11.312c-.636 1.52-1.785 4.125-3.187 6.7h-.004l-.168.304c-.258.465-.52.926-.781 1.363l-.188.313v.004c-1.11 1.82-2.32 3.468-3.531 4.5-.059.05-.219.05-.277 0-1.32-1.125-2.653-2.997-3.844-4.985a42.43 42.43 0 0 1-.703-1.215c-1.696-3.03-3-6.058-3.387-6.984-.504-1.203-.52-2.434-.047-3.379 1.543-3.074 6.73-3.242 7.875-3.242h.223c.062 0 6.246-.215 8.066 3.25.48.918.465 2.144-.047 3.37zm0 0"/>
    <path d="M12.293 4.285c-.133 0-.211.004-.227.004l-.054.004-.067-.004h-.207c-.558 0-5.488.07-6.75 2.582-.312.621-.281 1.512.082 2.375 1.301 3.11 3.875 8.762 6.496 11.688.121.128.29.207.47.207a.622.622 0 0 0 .464-.207c1.93-2.145 4.031-5.97 6.422-11.688.375-.894.41-1.75.094-2.348-1.012-1.925-4.137-2.613-6.723-2.613zm-.66 2.914a3.78 3.78 0 0 0-1.598-.398 2.402 2.402 0 0 0-2.402 2.398 2.406 2.406 0 0 0 2.402 2.403.401.401 0 0 0 0-.801 1.604 1.604 0 0 1-1.601-1.602 1.6 1.6 0 0 1 1.601-1.597c.512 0 1.27.238 1.598.554v11.61C9.273 16.796 7 11.786 5.809 8.938c-.27-.645-.309-1.297-.106-1.708.836-1.664 4.184-2.125 5.93-2.14zm6.55 1.739c-2.105 5.03-4.035 8.664-5.75 10.828V8.156c.329-.316 1.09-.554 1.602-.554a1.6 1.6 0 0 1 0 3.2.401.401 0 1 0 0 .8 2.402 2.402 0 0 0 2.399-2.403 2.399 2.399 0 0 0-2.399-2.398c-.484 0-1.098.144-1.601.398V5.09c2.39.024 5.097.7 5.875 2.18.195.376.148 1.016-.125 1.668zm0 0"/>
</svg>
